src/icons/hds/ui/group.svg

<svg xmlns="http://www.w3.org/2000/svg" width="24" height="24" viewBox="0 0 24 24">
  <g fill="none" fill-rule="evenodd">
    <polygon points="0 0 24 0 24 12 24 24 0 24"/>
    <path fill="currentColor" d="M14.5,16 C16.3927259,16 17.9345493,17.5023917 17.9979705,19.3796751 L18,19.5 L18,22 L16,22 L16,19.5 C16,18.7011596 15.37554,18.0481696 14.5881364,18.0025463 L14.5,18 L9.5,18 C8.70115956,18 8.04816956,18.62446 8.00254635,19.4118636 L8,19.5 L8,22 L6,22 L6,19.5 C6,17.6072741 7.50239169,16.0654507 9.37967512,16.0020295 L9.5,16 L14.5,16 Z M16.8997409,9.9988136 L20.5,10 L20.6203249,10.0020295 C22.4350322,10.0633366 23.899424,11.5061286 23.9950338,13.3119388 L24,13.5 L24,16 L22,16 L22,13.5 L21.9974537,13.4118636 C21.9545142,12.6707778 21.3735612,12.0740297 20.6393639,12.0063883 L20.5,12 L16.8997409,12.0011864 C16.9654854,11.6777087 17,11.342885 17,11 C17,10.657115 16.9654854,10.3222913 16.8997409,9.9988136 Z M7.10025909,9.9988136 C7.0345146,10.3222913 7,10.657115 7,11 C7,11.342885 7.0345146,11.6777087 7.10025909,12.0011864 L3.5,12 C2.70115956,12 2.04816956,12.62446 2.00254635,13.4118636 L2,13.5 L2,16 L1.70530257e-13,16 L1.70530257e-13,13.5 C1.70530257e-13,11.6072741 1.50239169,10.0654507 3.37967512,10.0020295 L3.5,10 L7.10025909,9.9988136 Z M12,7 C14.209139,7 16,8.790861 16,11 C16,13.209139 14.209139,15 12,15 C9.790861,15 8,13.209139 8,11 C8,8.790861 9.790861,7 12,7 Z M12,9 C10.8954305,9 10,9.8954305 10,11 C10,12.1045695 10.8954305,13 12,13 C13.1045695,13 14,12.1045695 14,11 C14,9.8954305 13.1045695,9 12,9 Z M5.5,2 C7.43299662,2 9,3.56700338 9,5.5 C9,7.43299662 7.43299662,9 5.5,9 C3.56700338,9 2,7.43299662 2,5.5 C2,3.56700338 3.56700338,2 5.5,2 Z M18.5,2 C20.4329966,2 22,3.56700338 22,5.5 C22,7.43299662 20.4329966,9 18.5,9 C16.5670034,9 15,7.43299662 15,5.5 C15,3.56700338 16.5670034,2 18.5,2 Z M5.5,4 C4.67157288,4 4,4.67157288 4,5.5 C4,6.32842712 4.67157288,7 5.5,7 C6.32842712,7 7,6.32842712 7,5.5 C7,4.67157288 6.32842712,4 5.5,4 Z M18.5,4 C17.6715729,4 17,4.67157288 17,5.5 C17,6.32842712 17.6715729,7 18.5,7 C19.3284271,7 20,6.32842712 20,5.5 C20,4.67157288 19.3284271,4 18.5,4 Z"/>
  </g>
</svg>

<svg viewBox="0 0 24 24" role="img" xmlns="http://www.w3.org/2000/svg"><g fill="none" fill-rule="evenodd"><path d="M0 0h24v24H0z"/><path d="M14.5 16a3.5 3.5 0 013.498 3.38l.002.12V22h-2v-2.5a1.5 1.5 0 00-1.412-1.497L14.5 18h-5a1.5 1.5 0 00-1.497 1.412L8 19.5V22H6v-2.5a3.5 3.5 0 013.38-3.498L9.5 16h5zm2.4-6.001l3.6.001.12.002a3.5 3.5 0 013.375 3.31L24 13.5V16h-2v-2.5l-.003-.088a1.5 1.5 0 00-1.358-1.406L20.5 12l-3.6.001a5.023 5.023 0 000-2.002zm-9.8 0A5.023 5.023 0 007.1 12L3.5 12a1.5 1.5 0 00-1.497 1.412L2 13.5V16H0v-2.5a3.5 3.5 0 013.38-3.498L3.5 10l3.6-.001zM12 7a4 4 0 110 8 4 4 0 010-8zm0 2a2 2 0 100 4 2 2 0 000-4zM5.5 2a3.5 3.5 0 110 7 3.5 3.5 0 010-7zm13 0a3.5 3.5 0 110 7 3.5 3.5 0 010-7zm-13 2a1.5 1.5 0 100 3 1.5 1.5 0 000-3zm13 0a1.5 1.5 0 100 3 1.5 1.5 0 000-3z" fill="currentColor"/></g></svg>
